X:49
T:Devil amangst the Taylors. MBe.49, The
S:Matthew Betham MS, Towcett Cumbria, 1815
O:England;Cumbria;Towcett
Z:VMP – Hugh Taylor, 2012
M:C
L:1/8
Q:1/2=100
R:.Reel
K:G
d2|g2 dg g2 dg|g2 dg edcB|BeAe BeAe|ceAg fgaf|
g2 dg g2 dg|g2 dg edcB|ecBA dBAG|D2 F2 G2:|
|:d2|BdGd BdGd|BdGg edcB|ceAe ceAe|ceAg fgaf|
BdGd BdGd|BdGg edcB|ecBA dBAG|D2 F2 G2:|

